X: 207
T: Song of the Shuffling-feet Dance (b)
C: Teton Sioux band 1911-1914
N: Derived from sioux202.krn
O: South Dakota, U.S.A.
N: Teton Sioux Music by Frances Densmore, 1918
Z: transcribed to **kern format by Craig Sapp
L: 1/8
M: 2/4
Q: 1/4=58
K: Bb clef=bass
%%linebreak <none>
F3/ D/ [I:setbarnb 1]| 
F2F2 | 
F> D (3C D C | 
B,< B, F,3/ F,/ | 
F,4 | 
B,> B,- (3B, D C | 
B,< B, (3D D C | 
B,> F, F,/ F,/ D,/ F,/ ||  
[M:3/4]F,6 ||  
[M:2/4]F,> D, (3C, D, C, | 
B,,> B,, B,,/ F,,3/ | 
B,,> B,,- (3B,, D, C, | 
B,,< B,, (3D, D, C, | 
(3B,, B,, F,, F,,/ F,,/ D,,/ F,,/ | 
F,,3F,, | 
F,,2F,,2 |]  



